dist/img/mbr3.svg

<svg width="366" height="241" viewBox="0 0 366 241" fill="none" xmlns="http://www.w3.org/2000/svg">
<g clip-path="url(#clip0_955_40143)">
<g filter="url(#filter0_d_955_40143)">
<mask id="mask0_955_40143" style="mask-type:alpha" maskUnits="userSpaceOnUse" x="39" y="1" width="288" height="223">
<path fill-rule="evenodd" clip-rule="evenodd" d="M39.1172 1.30066H326.669V223.201H39.1172V1.30066Z" fill="white"/>
</mask>
<g mask="url(#mask0_955_40143)">
<path fill-rule="evenodd" clip-rule="evenodd" d="M326.669 214.655C326.669 219.384 323.048 223.201 318.596 223.201H47.1869C42.7352 223.201 39.1172 219.384 39.1172 214.655V9.84855C39.1172 5.12006 42.7352 1.29993 47.1869 1.29993H318.596C323.048 1.29993 326.669 5.12006 326.669 9.84855V214.655Z" fill="white"/>
</g>
<mask id="mask1_955_40143" style="mask-type:alpha" maskUnits="userSpaceOnUse" x="3" y="1" width="360" height="235">
<path fill-rule="evenodd" clip-rule="evenodd" d="M3 236H362.778V1.30066H3V236Z" fill="white"/>
</mask>
<g mask="url(#mask1_955_40143)">
<path fill-rule="evenodd" clip-rule="evenodd" d="M52 203.755H313.35V15.9999H52V203.755Z" fill="#191551"/>
<path fill-rule="evenodd" clip-rule="evenodd" d="M3 216.793C4.07251 227.539 14.728 236 27.84 236H337.934C351.053 236 361.701 227.539 362.779 216.793H3Z" fill="#EFEFEF"/>
<path fill-rule="evenodd" clip-rule="evenodd" d="M135.461 223.201H230.316V216.792H135.461V223.201Z" fill="#CCCCCC"/>
</g>
</g>
<mask id="mask2_955_40143" style="mask-type:alpha" maskUnits="userSpaceOnUse" x="68" y="37" width="103" height="82">
<path fill-rule="evenodd" clip-rule="evenodd" d="M68 37H170.005V118.604H68V37Z" fill="white"/>
</mask>
<g mask="url(#mask2_955_40143)">
<path fill-rule="evenodd" clip-rule="evenodd" d="M157.616 40.4888H87.9595C80.8193 40.4888 75.0312 46.2433 75.0312 53.3419V93.6533C75.0312 100.752 80.8193 106.506 87.9595 106.506H116.189C118.403 113.756 125.139 119.068 133.163 119.154C134.73 119.17 136.251 118.986 137.703 118.626C133.662 115.877 130.821 111.526 130.079 106.506H157.616C164.756 106.506 170.544 100.752 170.544 93.6533V53.3419C170.544 46.2433 164.756 40.4888 157.616 40.4888Z" fill="#1DAFF4"/>
</g>
<path fill-rule="evenodd" clip-rule="evenodd" d="M117.334 90.2058C117.334 89.0829 117.691 88.1739 118.405 87.4802C119.12 86.7859 120.026 86.4394 121.122 86.4394C122.252 86.4394 123.175 86.7859 123.89 87.4802C124.604 88.1739 124.962 89.0829 124.962 90.2058C124.962 91.3299 124.604 92.2461 123.89 92.9562C123.175 93.6663 122.252 94.022 121.122 94.022C120.026 94.022 119.12 93.6663 118.405 92.9562C117.691 92.2461 117.334 91.3299 117.334 90.2058ZM118.08 81.4328C118.08 80.3427 118.237 79.3767 118.554 78.534C118.87 77.6914 119.268 76.9229 119.75 76.2292C120.232 75.5355 120.755 74.8911 121.321 74.2965C121.885 73.7019 122.409 73.1067 122.891 72.5115C123.372 71.9169 123.771 71.2974 124.087 70.6529C124.403 70.0091 124.561 69.2905 124.561 68.4971C124.561 67.2751 124.145 66.267 123.315 65.4736C122.484 64.6809 121.387 64.2845 120.024 64.2845C117.764 64.2845 115.405 65.3253 112.945 67.407V61.5085C115.604 59.659 118.429 58.7331 121.42 58.7331C122.883 58.7331 124.22 58.9568 125.434 59.4025C126.646 59.8487 127.685 60.4682 128.55 61.261C129.413 62.0544 130.086 62.9956 130.568 64.0863C131.05 65.177 131.291 66.3661 131.291 67.655C131.291 69.4388 130.925 70.9758 130.195 72.2641C129.463 73.5529 128.649 74.7263 127.752 75.783C126.854 76.8408 126.04 77.8482 125.308 78.8064C124.577 79.7652 124.212 80.806 124.212 81.9289V83.0689H118.08V81.4328Z" fill="white"/>
<path fill-rule="evenodd" clip-rule="evenodd" d="M135.844 145.195V159.503C135.844 162.022 137.898 164.064 140.432 164.064H150.451C151.237 166.637 153.628 168.522 156.476 168.553C157.032 168.559 157.572 168.493 158.087 168.366C156.653 167.39 155.644 165.846 155.381 164.064H165.155C167.688 164.064 169.743 162.022 169.743 159.503V145.195C169.743 142.676 167.688 140.634 165.155 140.634H140.432C137.898 140.634 135.844 142.676 135.844 145.195Z" fill="#03E59F"/>
<path fill-rule="evenodd" clip-rule="evenodd" d="M143.113 151.748C143.113 150.633 144.022 149.731 145.142 149.731C146.263 149.731 147.172 150.633 147.172 151.748C147.172 152.862 146.263 153.765 145.142 153.765C144.022 153.765 143.113 152.862 143.113 151.748ZM150.439 151.748C150.439 150.633 151.347 149.731 152.468 149.731C153.589 149.731 154.497 150.633 154.497 151.748C154.497 152.862 153.589 153.765 152.468 153.765C151.347 153.765 150.439 152.862 150.439 151.748ZM157.759 151.748C157.759 150.633 158.668 149.731 159.788 149.731C160.909 149.731 161.817 150.633 161.817 151.748C161.817 152.862 160.909 153.765 159.788 153.765C158.668 153.765 157.759 152.862 157.759 151.748Z" fill="white"/>
<mask id="mask3_955_40143" style="mask-type:alpha" maskUnits="userSpaceOnUse" x="213" y="82" width="101" height="92">
<path fill-rule="evenodd" clip-rule="evenodd" d="M213.227 82.1981H313.54V173.635H213.227V82.1981Z" fill="white"/>
</mask>
<g mask="url(#mask3_955_40143)">
<path fill-rule="evenodd" clip-rule="evenodd" d="M309.219 82.1981H228.254C219.954 82.1981 213.227 88.8863 213.227 97.1377V143.994C213.227 152.245 219.954 158.933 228.254 158.933H260.261C259.399 164.768 256.097 169.825 251.399 173.021C253.087 173.438 254.855 173.653 256.676 173.634C266.003 173.534 273.833 167.36 276.407 158.933H309.219C317.518 158.933 324.246 152.245 324.246 143.994V97.1377C324.246 88.8863 317.518 82.1981 309.219 82.1981Z" fill="#FC3E54"/>
</g>
<mask id="mask4_955_40143" style="mask-type:alpha" maskUnits="userSpaceOnUse" x="100" y="54" width="214" height="145">
<path fill-rule="evenodd" clip-rule="evenodd" d="M100 198.409H313.54V54.1443H100V198.409Z" fill="white"/>
</mask>
<g mask="url(#mask4_955_40143)">
<path fill-rule="evenodd" clip-rule="evenodd" d="M237.305 139.09H300.169V101.07H237.305V139.09Z" fill="white"/>
<path fill-rule="evenodd" clip-rule="evenodd" d="M300.169 101.071L268.737 121.134L237.305 101.071H300.169Z" fill="#EFEFEF"/>
</g>
</g>
<defs>
<filter id="filter0_d_955_40143" x="0" y="0.300659" width="365.777" height="240.699" filterUnits="userSpaceOnUse" color-interpolation-filters="sRGB">
<feFlood flood-opacity="0" result="BackgroundImageFix"/>
<feColorMatrix in="SourceAlpha" type="matrix" values="0 0 0 0 0 0 0 0 0 0 0 0 0 0 0 0 0 0 127 0" result="hardAlpha"/>
<feOffset dy="2"/>
<feGaussianBlur stdDeviation="1.5"/>
<feColorMatrix type="matrix" values="0 0 0 0 0 0 0 0 0 0 0 0 0 0 0 0 0 0 0.15 0"/>
<feBlend mode="normal" in2="BackgroundImageFix" result="effect1_dropShadow_955_40143"/>
<feBlend mode="normal" in="SourceGraphic" in2="effect1_dropShadow_955_40143" result="shape"/>
</filter>
<clipPath id="clip0_955_40143">
<rect width="366" height="241" fill="white"/>
</clipPath>
</defs>
</svg>

<svg width="366" height="241" fill="none" xmlns="http://www.w3.org/2000/svg"><g clip-path="url(#clip0_955_40143)"><g filter="url(#filter0_d_955_40143)"><mask id="mask0_955_40143" style="mask-type:alpha" maskUnits="userSpaceOnUse" x="39" y="1" width="288" height="223"><path fill-rule="evenodd" clip-rule="evenodd" d="M39.117 1.3H326.67v221.901H39.117V1.301z" fill="#fff"/></mask><g mask="url(#mask0_955_40143)"><path fill-rule="evenodd" clip-rule="evenodd" d="M326.669 214.655c0 4.729-3.621 8.546-8.073 8.546H47.186c-4.45 0-8.069-3.817-8.069-8.546V9.849c0-4.729 3.618-8.55 8.07-8.55h271.409c4.452 0 8.073 3.821 8.073 8.55v204.806z" fill="#fff"/></g><mask id="mask1_955_40143" style="mask-type:alpha" maskUnits="userSpaceOnUse" x="3" y="1" width="360" height="235"><path fill-rule="evenodd" clip-rule="evenodd" d="M3 236h359.778V1.3H3V236z" fill="#fff"/></mask><g mask="url(#mask1_955_40143)" fill-rule="evenodd" clip-rule="evenodd"><path d="M52 203.755h261.35V16H52v187.755z" fill="#191551"/><path d="M3 216.793C4.073 227.539 14.728 236 27.84 236h310.094c13.119 0 23.767-8.461 24.845-19.207H3z" fill="#EFEFEF"/><path d="M135.461 223.201h94.855v-6.409h-94.855v6.409z" fill="#CCC"/></g></g><mask id="mask2_955_40143" style="mask-type:alpha" maskUnits="userSpaceOnUse" x="68" y="37" width="103" height="82"><path fill-rule="evenodd" clip-rule="evenodd" d="M68 37h102.005v81.604H68V37z" fill="#fff"/></mask><g mask="url(#mask2_955_40143)"><path fill-rule="evenodd" clip-rule="evenodd" d="M157.616 40.489H87.959c-7.14 0-12.928 5.754-12.928 12.853v40.311c0 7.099 5.788 12.853 12.928 12.853h28.23c2.214 7.25 8.95 12.562 16.974 12.648a18.074 18.074 0 004.54-.528c-4.041-2.749-6.882-7.1-7.624-12.12h27.537c7.14 0 12.928-5.754 12.928-12.853V53.342c0-7.099-5.788-12.853-12.928-12.853z" fill="#1DAFF4"/></g><path fill-rule="evenodd" clip-rule="evenodd" d="M117.334 90.206c0-1.123.357-2.032 1.071-2.726.715-.694 1.621-1.04 2.717-1.04 1.13 0 2.053.346 2.768 1.04.714.694 1.072 1.603 1.072 2.726 0 1.124-.358 2.04-1.072 2.75-.715.71-1.638 1.066-2.768 1.066-1.096 0-2.002-.356-2.717-1.066-.714-.71-1.071-1.626-1.071-2.75zm.746-8.773c0-1.09.157-2.056.474-2.899.316-.843.714-1.611 1.196-2.305a16.217 16.217 0 011.571-1.933 30.4 30.4 0 001.57-1.785 9.852 9.852 0 001.196-1.858c.316-.644.474-1.363.474-2.156 0-1.222-.416-2.23-1.246-3.023-.831-.793-1.928-1.19-3.291-1.19-2.26 0-4.619 1.041-7.079 3.123v-5.898c2.659-1.85 5.484-2.776 8.475-2.776 1.463 0 2.8.224 4.014.67 1.212.446 2.251 1.065 3.116 1.858a8.413 8.413 0 012.018 2.825c.482 1.091.723 2.28.723 3.569 0 1.784-.366 3.32-1.096 4.61a22.877 22.877 0 01-2.443 3.518 75.7 75.7 0 00-2.444 3.023c-.731.96-1.096 2-1.096 3.123v1.14h-6.132v-1.636z" fill="#fff"/><path fill-rule="evenodd" clip-rule="evenodd" d="M135.844 145.195v14.308c0 2.519 2.054 4.561 4.588 4.561h10.019a6.366 6.366 0 006.025 4.489 6.432 6.432 0 001.611-.187 6.328 6.328 0 01-2.706-4.302h9.774c2.533 0 4.588-2.042 4.588-4.561v-14.308c0-2.519-2.055-4.561-4.588-4.561h-24.723c-2.534 0-4.588 2.042-4.588 4.561z" fill="#03E59F"/><path fill-rule="evenodd" clip-rule="evenodd" d="M143.113 151.748c0-1.115.909-2.017 2.029-2.017 1.121 0 2.03.902 2.03 2.017a2.024 2.024 0 01-2.03 2.017 2.023 2.023 0 01-2.029-2.017zm7.326 0c0-1.115.908-2.017 2.029-2.017s2.029.902 2.029 2.017a2.023 2.023 0 01-2.029 2.017 2.023 2.023 0 01-2.029-2.017zm7.32 0c0-1.115.909-2.017 2.029-2.017 1.121 0 2.029.902 2.029 2.017a2.023 2.023 0 01-2.029 2.017 2.023 2.023 0 01-2.029-2.017z" fill="#fff"/><mask id="mask3_955_40143" style="mask-type:alpha" maskUnits="userSpaceOnUse" x="213" y="82" width="101" height="92"><path fill-rule="evenodd" clip-rule="evenodd" d="M213.227 82.198H313.54v91.437H213.227V82.198z" fill="#fff"/></mask><g mask="url(#mask3_955_40143)"><path fill-rule="evenodd" clip-rule="evenodd" d="M309.219 82.198h-80.965c-8.3 0-15.027 6.688-15.027 14.94v46.856c0 8.251 6.727 14.939 15.027 14.939h32.007c-.862 5.835-4.164 10.892-8.862 14.088a21.06 21.06 0 005.277.613c9.327-.1 17.157-6.274 19.731-14.701h32.812c8.299 0 15.027-6.688 15.027-14.939V97.138c0-8.252-6.728-14.94-15.027-14.94z" fill="#FC3E54"/></g><mask id="mask4_955_40143" style="mask-type:alpha" maskUnits="userSpaceOnUse" x="100" y="54" width="214" height="145"><path fill-rule="evenodd" clip-rule="evenodd" d="M100 198.409h213.54V54.144H100V198.41z" fill="#fff"/></mask><g mask="url(#mask4_955_40143)" fill-rule="evenodd" clip-rule="evenodd"><path d="M237.305 139.09h62.864v-38.02h-62.864v38.02z" fill="#fff"/><path d="M300.169 101.071l-31.432 20.063-31.432-20.063h62.864z" fill="#EFEFEF"/></g></g><defs><clipPath id="clip0_955_40143"><path fill="#fff" d="M0 0h366v241H0z"/></clipPath><filter id="filter0_d_955_40143" x="0" y=".301" width="365.777" height="240.699" filterUnits="userSpaceOnUse" color-interpolation-filters="sRGB"><feFlood flood-opacity="0" result="BackgroundImageFix"/><feColorMatrix in="SourceAlpha" values="0 0 0 0 0 0 0 0 0 0 0 0 0 0 0 0 0 0 127 0" result="hardAlpha"/><feOffset dy="2"/><feGaussianBlur stdDeviation="1.5"/><feColorMatrix values="0 0 0 0 0 0 0 0 0 0 0 0 0 0 0 0 0 0 0.15 0"/><feBlend in2="BackgroundImageFix" result="effect1_dropShadow_955_40143"/><feBlend in="SourceGraphic" in2="effect1_dropShadow_955_40143" result="shape"/></filter></defs></svg>
